assets/1. F-P/Input latin uppercase/Color/Input.Latin.Uppercase-color.svg

<svg width="100%" height="100%" viewBox="0 0 32 32" fill="none" xmlns="http://www.w3.org/2000/svg">
<g filter="url(#filter0_ii_18590_2214)">
<rect x="1.93433" y="1.8125" width="27.875" height="27.875" rx="3.6" fill="url(#paint0_linear_18590_2214)"/>
<rect x="1.93433" y="1.8125" width="27.875" height="27.875" rx="3.6" fill="url(#paint1_radial_18590_2214)"/>
</g>
<g filter="url(#filter1_f_18590_2214)">
<path d="M28.1218 4.3125V27.1875" stroke="url(#paint2_linear_18590_2214)" stroke-width="1.5" stroke-linecap="round"/>
</g>
<g filter="url(#filter2_f_18590_2214)">
<path d="M5.39819 3.625H27.1794" stroke="url(#paint3_linear_18590_2214)" stroke-width="1.5" stroke-linecap="round"/>
</g>
<g filter="url(#filter3_f_18590_2214)">
<path d="M11.3031 6.34273C11.1489 5.96444 10.7801 5.71799 10.3716 5.72023C9.9631 5.72247 9.59704 5.97296 9.44699 6.35292L6.63388 13.4766C6.43103 13.9903 6.68301 14.5711 7.19669 14.774C7.71038 14.9768 8.29124 14.7248 8.49409 14.2112L8.85556 13.2958C8.87064 13.2576 8.90752 13.2325 8.94857 13.2325H11.8847C11.9254 13.2325 11.962 13.2572 11.9773 13.2948L12.355 14.2214C12.5635 14.7328 13.1471 14.9784 13.6585 14.7699C14.1699 14.5614 14.4155 13.9778 14.2071 13.4664L11.3031 6.34273ZM11.0805 11.0948C11.1073 11.1606 11.0589 11.2325 10.9879 11.2325H9.81735C9.74679 11.2325 9.69842 11.1614 9.72434 11.0958L10.3003 9.63728C10.3334 9.55341 10.4519 9.55276 10.4859 9.63626L11.0805 11.0948Z" fill="#579FFF"/>
<path d="M23.912 9.86704C23.8897 9.91092 23.9008 9.9647 23.9389 9.99601C24.5511 10.5004 24.9415 11.2644 24.9415 12.1196C24.9415 13.6252 23.7316 14.8482 22.2311 14.8694C22.2088 14.8708 22.1862 14.8716 22.1635 14.8716H18.8064C18.5408 14.8716 18.2861 14.7659 18.0985 14.5779C17.9109 14.3899 17.8058 14.135 17.8064 13.8694L17.822 6.8674C17.8233 6.31598 18.2706 5.86963 18.822 5.86963H21.4606C22.9794 5.86963 24.2106 7.10085 24.2106 8.61963C24.2106 9.06871 24.1029 9.49264 23.912 9.86704ZM19.9118 11.3696C19.8566 11.3696 19.8119 11.4143 19.8118 11.4694L19.8089 12.7714C19.8087 12.8267 19.8535 12.8716 19.9089 12.8716H22.1283C22.1492 12.8703 22.1703 12.8696 22.1915 12.8696C22.6057 12.8696 22.9415 12.5338 22.9415 12.1196C22.9415 11.7054 22.6057 11.3696 22.1915 11.3696H19.9118ZM21.4612 9.36963C21.8751 9.3693 22.2106 9.03364 22.2106 8.61963C22.2106 8.20542 21.8748 7.86963 21.4606 7.86963H19.9196C19.8644 7.86963 19.8197 7.91426 19.8196 7.96941L19.8167 9.26941C19.8166 9.32472 19.8614 9.36963 19.9167 9.36963H21.4612Z" fill="#579FFF"/>
<path d="M6.85925 20.0184C6.85925 18.2235 8.31433 16.7684 10.1093 16.7684H10.4983C11.6124 16.7684 12.6489 17.3391 13.2446 18.2805L13.3287 18.4134C13.624 18.8801 13.4851 19.4978 13.0184 19.7932C12.5518 20.0885 11.934 19.9496 11.6387 19.4829L11.5546 19.35C11.3255 18.9879 10.9268 18.7684 10.4983 18.7684H10.1093C9.4189 18.7684 8.85925 19.3281 8.85925 20.0184V22.5297C8.85925 23.2201 9.4189 23.7797 10.1093 23.7797H10.35C10.8225 23.7797 11.2546 23.5133 11.4668 23.0912L11.5903 22.8456C11.8383 22.3522 12.4394 22.1533 12.9329 22.4014C13.4263 22.6494 13.6252 23.2505 13.3771 23.744L13.2537 23.9895C12.7019 25.0871 11.5784 25.7797 10.35 25.7797H10.1093C8.31433 25.7797 6.85925 24.3247 6.85925 22.5297V20.0184Z" fill="#579FFF"/>
<path d="M18.9263 16.702C18.374 16.702 17.9263 17.1497 17.9263 17.702V24.7798C17.9263 25.3321 18.374 25.7798 18.9263 25.7798H20.634C23.1408 25.7798 25.1729 23.7477 25.1729 21.2409C25.1729 18.7342 23.1408 16.702 20.634 16.702H18.9263ZM20.0263 23.7798C19.971 23.7798 19.9263 23.735 19.9263 23.6798V18.802C19.9263 18.7468 19.971 18.702 20.0263 18.702H20.634C22.0362 18.702 23.1729 19.8387 23.1729 21.2409C23.1729 22.6431 22.0362 23.7798 20.634 23.7798H20.0263Z" fill="#579FFF"/>
</g>
<g filter="url(#filter4_ii_18590_2214)">
<path d="M11.3031 6.34273C11.1489 5.96444 10.7801 5.71799 10.3716 5.72023C9.9631 5.72247 9.59704 5.97296 9.44699 6.35292L6.63388 13.4766C6.43103 13.9903 6.68301 14.5711 7.19669 14.774C7.71038 14.9768 8.29124 14.7248 8.49409 14.2112L8.85556 13.2958C8.87064 13.2576 8.90752 13.2325 8.94857 13.2325H11.8847C11.9254 13.2325 11.962 13.2572 11.9773 13.2948L12.355 14.2214C12.5635 14.7328 13.1471 14.9784 13.6585 14.7699C14.1699 14.5614 14.4155 13.9778 14.2071 13.4664L11.3031 6.34273ZM11.0805 11.0948C11.1073 11.1606 11.0589 11.2325 10.9879 11.2325H9.81735C9.74679 11.2325 9.69842 11.1614 9.72434 11.0958L10.3003 9.63728C10.3334 9.55341 10.4519 9.55276 10.4859 9.63626L11.0805 11.0948Z" fill="#FCF2FF"/>
<path d="M23.912 9.86704C23.8897 9.91092 23.9008 9.9647 23.9389 9.99601C24.5511 10.5004 24.9415 11.2644 24.9415 12.1196C24.9415 13.6252 23.7316 14.8482 22.2311 14.8694C22.2088 14.8708 22.1862 14.8716 22.1635 14.8716H18.8064C18.5408 14.8716 18.2861 14.7659 18.0985 14.5779C17.9109 14.3899 17.8058 14.135 17.8064 13.8694L17.822 6.8674C17.8233 6.31598 18.2706 5.86963 18.822 5.86963H21.4606C22.9794 5.86963 24.2106 7.10085 24.2106 8.61963C24.2106 9.06871 24.1029 9.49264 23.912 9.86704ZM19.9118 11.3696C19.8566 11.3696 19.8119 11.4143 19.8118 11.4694L19.8089 12.7714C19.8087 12.8267 19.8535 12.8716 19.9089 12.8716H22.1283C22.1492 12.8703 22.1703 12.8696 22.1915 12.8696C22.6057 12.8696 22.9415 12.5338 22.9415 12.1196C22.9415 11.7054 22.6057 11.3696 22.1915 11.3696H19.9118ZM21.4612 9.36963C21.8751 9.3693 22.2106 9.03364 22.2106 8.61963C22.2106 8.20542 21.8748 7.86963 21.4606 7.86963H19.9196C19.8644 7.86963 19.8197 7.91426 19.8196 7.96941L19.8167 9.26941C19.8166 9.32472 19.8614 9.36963 19.9167 9.36963H21.4612Z" fill="#FCF2FF"/>
<path d="M6.85925 20.0184C6.85925 18.2235 8.31433 16.7684 10.1093 16.7684H10.4983C11.6124 16.7684 12.6489 17.3391 13.2446 18.2805L13.3287 18.4134C13.624 18.8801 13.4851 19.4978 13.0184 19.7932C12.5518 20.0885 11.934 19.9496 11.6387 19.4829L11.5546 19.35C11.3255 18.9879 10.9268 18.7684 10.4983 18.7684H10.1093C9.4189 18.7684 8.85925 19.3281 8.85925 20.0184V22.5297C8.85925 23.2201 9.4189 23.7797 10.1093 23.7797H10.35C10.8225 23.7797 11.2546 23.5133 11.4668 23.0912L11.5903 22.8456C11.8383 22.3522 12.4394 22.1533 12.9329 22.4014C13.4263 22.6494 13.6252 23.2505 13.3771 23.744L13.2537 23.9895C12.7019 25.0871 11.5784 25.7797 10.35 25.7797H10.1093C8.31433 25.7797 6.85925 24.3247 6.85925 22.5297V20.0184Z" fill="#FCF2FF"/>
<path d="M18.9263 16.702C18.374 16.702 17.9263 17.1497 17.9263 17.702V24.7798C17.9263 25.3321 18.374 25.7798 18.9263 25.7798H20.634C23.1408 25.7798 25.1729 23.7477 25.1729 21.2409C25.1729 18.7342 23.1408 16.702 20.634 16.702H18.9263ZM20.0263 23.7798C19.971 23.7798 19.9263 23.735 19.9263 23.6798V18.802C19.9263 18.7468 19.971 18.702 20.0263 18.702H20.634C22.0362 18.702 23.1729 19.8387 23.1729 21.2409C23.1729 22.6431 22.0362 23.7798 20.634 23.7798H20.0263Z" fill="#FCF2FF"/>
</g>
<defs>
<filter id="filter0_ii_18590_2214" x="1.93433" y="0.8125" width="28.875" height="28.875" filterUnits="userSpaceOnUse" color-interpolation-filters="sRGB">
<feFlood flood-opacity="0" result="BackgroundImageFix"/>
<feBlend mode="normal" in="SourceGraphic" in2="BackgroundImageFix" result="shape"/>
<feColorMatrix in="SourceAlpha" type="matrix" values="0 0 0 0 0 0 0 0 0 0 0 0 0 0 0 0 0 0 127 0" result="hardAlpha"/>
<feOffset dx="1" dy="-1"/>
<feGaussianBlur stdDeviation="1.5"/>
<feComposite in2="hardAlpha" operator="arithmetic" k2="-1" k3="1"/>
<feColorMatrix type="matrix" values="0 0 0 0 0.188235 0 0 0 0 0.470588 0 0 0 0 0.843137 0 0 0 1 0"/>
<feBlend mode="normal" in2="shape" result="effect1_innerShadow_18590_2214"/>
<feColorMatrix in="SourceAlpha" type="matrix" values="0 0 0 0 0 0 0 0 0 0 0 0 0 0 0 0 0 0 127 0" result="hardAlpha"/>
<feOffset dy="-1"/>
<feGaussianBlur stdDeviation="1.5"/>
<feComposite in2="hardAlpha" operator="arithmetic" k2="-1" k3="1"/>
<feColorMatrix type="matrix" values="0 0 0 0 0.27451 0 0 0 0 0.34902 0 0 0 0 0.8 0 0 0 1 0"/>
<feBlend mode="normal" in2="effect1_innerShadow_18590_2214" result="effect2_innerShadow_18590_2214"/>
</filter>
<filter id="filter1_f_18590_2214" x="25.3718" y="1.5625" width="5.5" height="28.375" filterUnits="userSpaceOnUse" color-interpolation-filters="sRGB">
<feFlood flood-opacity="0" result="BackgroundImageFix"/>
<feBlend mode="normal" in="SourceGraphic" in2="BackgroundImageFix" result="shape"/>
<feGaussianBlur stdDeviation="1" result="effect1_foregroundBlur_18590_2214"/>
</filter>
<filter id="filter2_f_18590_2214" x="2.64819" y="0.875" width="27.2812" height="5.5" filterUnits="userSpaceOnUse" color-interpolation-filters="sRGB">
<feFlood flood-opacity="0" result="BackgroundImageFix"/>
<feBlend mode="normal" in="SourceGraphic" in2="BackgroundImageFix" result="shape"/>
<feGaussianBlur stdDeviation="1" result="effect1_foregroundBlur_18590_2214"/>
</filter>
<filter id="filter3_f_18590_2214" x="5.56372" y="4.72021" width="20.6093" height="22.0596" filterUnits="userSpaceOnUse" color-interpolation-filters="sRGB">
<feFlood flood-opacity="0" result="BackgroundImageFix"/>
<feBlend mode="normal" in="SourceGraphic" in2="BackgroundImageFix" result="shape"/>
<feGaussianBlur stdDeviation="0.5" result="effect1_foregroundBlur_18590_2214"/>
</filter>
<filter id="filter4_ii_18590_2214" x="5.56372" y="5.32021" width="20.0093" height="21.4596" filterUnits="userSpaceOnUse" color-interpolation-filters="sRGB">
<feFlood flood-opacity="0" result="BackgroundImageFix"/>
<feBlend mode="normal" in="SourceGraphic" in2="BackgroundImageFix" result="shape"/>
<feColorMatrix in="SourceAlpha" type="matrix" values="0 0 0 0 0 0 0 0 0 0 0 0 0 0 0 0 0 0 127 0" result="hardAlpha"/>
<feOffset dx="-1" dy="1"/>
<feGaussianBlur stdDeviation="1"/>
<feComposite in2="hardAlpha" operator="arithmetic" k2="-1" k3="1"/>
<feColorMatrix type="matrix" values="0 0 0 0 0.866667 0 0 0 0 0.819608 0 0 0 0 0.941176 0 0 0 1 0"/>
<feBlend mode="normal" in2="shape" result="effect1_innerShadow_18590_2214"/>
<feColorMatrix in="SourceAlpha" type="matrix" values="0 0 0 0 0 0 0 0 0 0 0 0 0 0 0 0 0 0 127 0" result="hardAlpha"/>
<feOffset dx="0.4" dy="-0.4"/>
<feGaussianBlur stdDeviation="0.5"/>
<feComposite in2="hardAlpha" operator="arithmetic" k2="-1" k3="1"/>
<feColorMatrix type="matrix" values="0 0 0 0 1 0 0 0 0 0.988235 0 0 0 0 1 0 0 0 1 0"/>
<feBlend mode="normal" in2="effect1_innerShadow_18590_2214" result="effect2_innerShadow_18590_2214"/>
</filter>
<linearGradient id="paint0_linear_18590_2214" x1="15.8718" y1="5.38701" x2="15.8718" y2="38.6397" gradientUnits="userSpaceOnUse">
<stop stop-color="#5CB7FF"/>
<stop offset="1" stop-color="#4878DD"/>
</linearGradient>
<radialGradient id="paint1_radial_18590_2214" cx="0" cy="0" r="1" gradientUnits="userSpaceOnUse" gradientTransform="translate(27.5906 3.90625) rotate(136.771) scale(2.14444 2.50466)">
<stop stop-color="#7BD7FF"/>
<stop offset="1" stop-color="#7BD7FF" stop-opacity="0"/>
</radialGradient>
<linearGradient id="paint2_linear_18590_2214" x1="28.6218" y1="4.3125" x2="28.6218" y2="27.1875" gradientUnits="userSpaceOnUse">
<stop stop-color="#7FD9FF"/>
<stop offset="1" stop-color="#639DF4"/>
</linearGradient>
<linearGradient id="paint3_linear_18590_2214" x1="28.3357" y1="3.87502" x2="2.80444" y2="3.87502" gradientUnits="userSpaceOnUse">
<stop stop-color="#7DD8FF"/>
<stop offset="1" stop-color="#5DB6FF"/>
</linearGradient>
</defs>
</svg>

<svg width="100%" height="100%" viewBox="0 0 32 32" xmlns="http://www.w3.org/2000/svg"><g filter="url(#a)"><rect width="27.875" height="27.875" x="1.934" y="1.813" fill="url(#b)" rx="3.6"/><rect width="27.875" height="27.875" x="1.934" y="1.813" fill="url(#c)" rx="3.6"/></g><g filter="url(#d)"><path stroke="url(#e)" stroke-linecap="round" stroke-width="1.5" d="M28.122 4.313v22.875"/></g><g filter="url(#f)"><path stroke="url(#g)" stroke-linecap="round" stroke-width="1.5" d="M5.398 3.625H27.18"/></g><g fill="#579FFF" filter="url(#h)"><path d="M11.303 6.343a1 1 0 0 0-1.856.01l-2.813 7.124a1 1 0 0 0 1.86.734l.362-.915a.1.1 0 0 1 .093-.063h2.936a.1.1 0 0 1 .092.062l.378.926a1 1 0 0 0 1.852-.755zm-.223 4.752a.1.1 0 0 1-.092.137h-1.17a.1.1 0 0 1-.094-.136l.576-1.459a.1.1 0 0 1 .186 0zM23.912 9.867a.105.105 0 0 0 .027.129 2.75 2.75 0 0 1-1.775 4.876h-3.358a1 1 0 0 1-1-1.003l.016-7.002a1 1 0 0 1 1-.997h2.639a2.75 2.75 0 0 1 2.451 3.997m-4 1.503a.1.1 0 0 0-.1.1l-.003 1.301a.1.1 0 0 0 .1.1h2.22l.063-.001a.75.75 0 0 0 0-1.5zm1.55-2a.75.75 0 0 0-.001-1.5H19.92a.1.1 0 0 0-.1.1l-.003 1.3a.1.1 0 0 0 .1.1zM6.86 20.018a3.25 3.25 0 0 1 3.25-3.25h.388c1.114 0 2.15.571 2.747 1.512l.084.133a1 1 0 0 1-1.69 1.07l-.084-.133a1.25 1.25 0 0 0-1.057-.582h-.389c-.69 0-1.25.56-1.25 1.25v2.512c0 .69.56 1.25 1.25 1.25h.241a1.25 1.25 0 0 0 1.117-.689l.123-.245a1 1 0 1 1 1.787.898l-.123.245a3.25 3.25 0 0 1-2.904 1.79h-.24a3.25 3.25 0 0 1-3.25-3.25zM18.926 16.702a1 1 0 0 0-1 1v7.078a1 1 0 0 0 1 1h1.708a4.539 4.539 0 1 0 0-9.078zm1.1 7.078a.1.1 0 0 1-.1-.1v-4.878a.1.1 0 0 1 .1-.1h.608a2.539 2.539 0 1 1 0 5.078z"/></g><g fill="#FCF2FF" filter="url(#i)"><path d="M11.303 6.343a1 1 0 0 0-1.856.01l-2.813 7.124a1 1 0 0 0 1.86.734l.362-.915a.1.1 0 0 1 .093-.063h2.936a.1.1 0 0 1 .092.062l.378.926a1 1 0 0 0 1.852-.755zm-.223 4.752a.1.1 0 0 1-.092.137h-1.17a.1.1 0 0 1-.094-.136l.576-1.459a.1.1 0 0 1 .186 0zM23.912 9.867a.105.105 0 0 0 .027.129 2.75 2.75 0 0 1-1.775 4.876h-3.358a1 1 0 0 1-1-1.003l.016-7.002a1 1 0 0 1 1-.997h2.639a2.75 2.75 0 0 1 2.451 3.997m-4 1.503a.1.1 0 0 0-.1.1l-.003 1.301a.1.1 0 0 0 .1.1h2.22l.063-.001a.75.75 0 0 0 0-1.5zm1.55-2a.75.75 0 0 0-.001-1.5H19.92a.1.1 0 0 0-.1.1l-.003 1.3a.1.1 0 0 0 .1.1zM6.86 20.018a3.25 3.25 0 0 1 3.25-3.25h.388c1.114 0 2.15.571 2.747 1.512l.084.133a1 1 0 0 1-1.69 1.07l-.084-.133a1.25 1.25 0 0 0-1.057-.582h-.389c-.69 0-1.25.56-1.25 1.25v2.512c0 .69.56 1.25 1.25 1.25h.241a1.25 1.25 0 0 0 1.117-.689l.123-.245a1 1 0 1 1 1.787.898l-.123.245a3.25 3.25 0 0 1-2.904 1.79h-.24a3.25 3.25 0 0 1-3.25-3.25zM18.926 16.702a1 1 0 0 0-1 1v7.078a1 1 0 0 0 1 1h1.708a4.539 4.539 0 1 0 0-9.078zm1.1 7.078a.1.1 0 0 1-.1-.1v-4.878a.1.1 0 0 1 .1-.1h.608a2.539 2.539 0 1 1 0 5.078z"/></g><defs><filter id="a" width="28.875" height="28.875" x="1.934" y=".813" color-interpolation-filters="sRGB" filterUnits="userSpaceOnUse"><feFlood flood-opacity="0" result="BackgroundImageFix"/><feBlend in="SourceGraphic" in2="BackgroundImageFix" result="shape"/><feColorMatrix in="SourceAlpha" result="hardAlpha" values="0 0 0 0 0 0 0 0 0 0 0 0 0 0 0 0 0 0 127 0"/><feOffset dx="1" dy="-1"/><feGaussianBlur stdDeviation="1.5"/><feComposite in2="hardAlpha" k2="-1" k3="1" operator="arithmetic"/><feColorMatrix values="0 0 0 0 0.188235 0 0 0 0 0.470588 0 0 0 0 0.843137 0 0 0 1 0"/><feBlend in2="shape" result="effect1_innerShadow_18590_2214"/><feColorMatrix in="SourceAlpha" result="hardAlpha" values="0 0 0 0 0 0 0 0 0 0 0 0 0 0 0 0 0 0 127 0"/><feOffset dy="-1"/><feGaussianBlur stdDeviation="1.5"/><feComposite in2="hardAlpha" k2="-1" k3="1" operator="arithmetic"/><feColorMatrix values="0 0 0 0 0.27451 0 0 0 0 0.34902 0 0 0 0 0.8 0 0 0 1 0"/><feBlend in2="effect1_innerShadow_18590_2214" result="effect2_innerShadow_18590_2214"/></filter><filter id="d" width="5.5" height="28.375" x="25.372" y="1.563" color-interpolation-filters="sRGB" filterUnits="userSpaceOnUse"><feFlood flood-opacity="0" result="BackgroundImageFix"/><feBlend in="SourceGraphic" in2="BackgroundImageFix" result="shape"/><feGaussianBlur result="effect1_foregroundBlur_18590_2214" stdDeviation="1"/></filter><filter id="f" width="27.281" height="5.5" x="2.648" y=".875" color-interpolation-filters="sRGB" filterUnits="userSpaceOnUse"><feFlood flood-opacity="0" result="BackgroundImageFix"/><feBlend in="SourceGraphic" in2="BackgroundImageFix" result="shape"/><feGaussianBlur result="effect1_foregroundBlur_18590_2214" stdDeviation="1"/></filter><filter id="h" width="20.609" height="22.06" x="5.564" y="4.72" color-interpolation-filters="sRGB" filterUnits="userSpaceOnUse"><feFlood flood-opacity="0" result="BackgroundImageFix"/><feBlend in="SourceGraphic" in2="BackgroundImageFix" result="shape"/><feGaussianBlur result="effect1_foregroundBlur_18590_2214" stdDeviation=".5"/></filter><filter id="i" width="20.009" height="21.46" x="5.564" y="5.32" color-interpolation-filters="sRGB" filterUnits="userSpaceOnUse"><feFlood flood-opacity="0" result="BackgroundImageFix"/><feBlend in="SourceGraphic" in2="BackgroundImageFix" result="shape"/><feColorMatrix in="SourceAlpha" result="hardAlpha" values="0 0 0 0 0 0 0 0 0 0 0 0 0 0 0 0 0 0 127 0"/><feOffset dx="-1" dy="1"/><feGaussianBlur stdDeviation="1"/><feComposite in2="hardAlpha" k2="-1" k3="1" operator="arithmetic"/><feColorMatrix values="0 0 0 0 0.866667 0 0 0 0 0.819608 0 0 0 0 0.941176 0 0 0 1 0"/><feBlend in2="shape" result="effect1_innerShadow_18590_2214"/><feColorMatrix in="SourceAlpha" result="hardAlpha" values="0 0 0 0 0 0 0 0 0 0 0 0 0 0 0 0 0 0 127 0"/><feOffset dx=".4" dy="-.4"/><feGaussianBlur stdDeviation=".5"/><feComposite in2="hardAlpha" k2="-1" k3="1" operator="arithmetic"/><feColorMatrix values="0 0 0 0 1 0 0 0 0 0.988235 0 0 0 0 1 0 0 0 1 0"/><feBlend in2="effect1_innerShadow_18590_2214" result="effect2_innerShadow_18590_2214"/></filter><linearGradient id="b" x1="15.872" x2="15.872" y1="5.387" y2="38.64" gradientUnits="userSpaceOnUse"><stop stop-color="#5CB7FF"/><stop offset="1" stop-color="#4878DD"/></linearGradient><linearGradient id="e" x1="28.622" x2="28.622" y1="4.313" y2="27.188" gradientUnits="userSpaceOnUse"><stop stop-color="#7FD9FF"/><stop offset="1" stop-color="#639DF4"/></linearGradient><linearGradient id="g" x1="28.336" x2="2.804" y1="3.875" y2="3.875" gradientUnits="userSpaceOnUse"><stop stop-color="#7DD8FF"/><stop offset="1" stop-color="#5DB6FF"/></linearGradient><radialGradient id="c" cx="0" cy="0" r="1" gradientTransform="matrix(-1.56249 1.46876 -1.71548 -1.82495 27.59 3.906)" gradientUnits="userSpaceOnUse"><stop stop-color="#7BD7FF"/><stop offset="1" stop-color="#7BD7FF" stop-opacity="0"/></radialGradient></defs></svg>
